templates/main/source/images/block-1-5.svg

<?xml version="1.0" encoding="utf-8"?>
<svg width="49px" height="49px" viewbox="0 0 49 49" version="1.1" xmlns:xlink="http://www.w3.org/1999/xlink" xmlns="http://www.w3.org/2000/svg">
  <g id="museum-2" transform="translate(0.5 0.5)">
    <path d="M18 36C27.9411 36 36 27.9411 36 18C36 8.05887 27.9411 0 18 0C8.05887 0 0 8.05887 0 18C0 27.9411 8.05887 36 18 36Z" transform="translate(0 6)" id="Oval" fill="#8C0014" fill-opacity="0.14901961" fill-rule="evenodd" stroke="none" />
    <path d="M0.883345 13.2591C0.865896 13.354 0.856061 13.4501 0.852888 13.5462L0.852888 15.5209C0.855426 16.3346 1.36082 17.0621 2.12319 17.348L2.12319 20.2534C2.12668 21.2261 2.89159 22.0256 3.86304 22.0716L3.86304 38.8568C2.89159 38.9032 2.12668 39.7026 2.12319 40.675L2.12319 43.5719C1.35923 43.8654 0.854157 44.5983 0.852888 45.4162L0.852888 47.3476C0.852888 47.7077 1.1454 47.9999 1.50549 47.9999L45.5068 47.9999C45.8668 47.9999 46.159 47.7077 46.159 47.3476L46.159 45.4162C46.1578 44.5979 45.6527 43.8651 44.8891 43.5719L44.8891 40.6579C44.8856 39.6852 44.1203 38.8857 43.1492 38.8397L43.1492 22.0716C44.1203 22.0256 44.8856 21.2261 44.8891 20.2534L44.8891 17.348C45.6511 17.0621 46.1565 16.3346 46.159 15.5209L46.159 13.5592C46.1562 13.4631 46.146 13.367 46.1286 13.2721C46.4566 13.4174 46.8402 13.2696 46.9855 12.9415C47.1308 12.6138 46.983 12.2303 46.6552 12.0846L23.8063 0.0754283C23.6156 -0.0251428 23.3878 -0.0251428 23.1971 0.0754283L0.348446 12.0716C0.0296013 12.2401 -0.0925434 12.6344 0.0752866 12.9533C0.22884 13.2445 0.575287 13.3759 0.883345 13.2591ZM3.42808 18.4787L3.42808 17.4739L10.9528 17.4739L10.9528 18.4701L3.42808 18.4787ZM20.1828 22.0761L20.1828 38.8568C19.2114 38.9032 18.4465 39.7027 18.443 40.675L18.443 43.4501L12.2488 43.4501L12.2488 40.675C12.2453 39.7027 11.4804 38.9032 10.509 38.8568L10.509 22.0716C11.4804 22.0256 12.2453 21.2261 12.2488 20.2534L12.2488 17.4739L18.4341 17.4739L18.4341 20.2493C18.4357 21.2236 19.2012 22.025 20.1743 22.0716L20.1828 22.0761ZM19.7479 18.4787L19.7479 17.4739L27.2729 17.4739L27.2729 18.4701L19.7479 18.4787ZM36.503 22.0761L36.503 38.8568C35.5315 38.9032 34.7663 39.7027 34.7628 40.675L34.7628 43.4501L28.5689 43.4501L28.5689 40.675C28.5655 39.7027 27.8002 38.9032 26.8291 38.8568L26.8291 22.0716C27.8002 22.0256 28.5655 21.2261 28.5689 20.2534L28.5689 17.4739L34.7542 17.4739L34.7542 20.2493C34.7555 21.2236 35.521 22.025 36.4941 22.0716L36.503 22.0761ZM36.068 18.4787L36.068 17.4739L43.5927 17.4739L43.5927 18.4701L36.068 18.4787ZM43.5927 42.4542L43.5927 43.4501L36.0591 43.4501L36.0591 42.4542L43.5927 42.4542ZM27.2729 42.4542L27.2729 43.4501L19.7393 43.4501L19.7393 42.4542L27.2729 42.4542ZM20.8266 20.7797L20.2612 20.7797C19.9728 20.7797 19.7393 20.5462 19.7393 20.2579L19.7393 19.7836L27.2641 19.7836L27.2641 20.2579C27.2641 20.5462 27.0306 20.7797 26.7422 20.7797L20.8266 20.7797ZM25.5286 22.0846L25.5286 38.8483L21.4792 38.8483L21.4792 22.0846C21.4792 22.0846 25.5286 22.0846 25.5286 22.0846ZM20.8266 40.1532L26.7422 40.1532C27.0306 40.1532 27.2641 40.3867 27.2641 40.675L27.2641 41.1493L19.7393 41.1493L19.7393 40.675C19.7393 40.3867 19.9728 40.1532 20.2612 40.1532L20.8266 40.1532ZM10.9443 42.4542L10.9443 43.4501L3.4192 43.4501L3.4192 42.4542L10.9443 42.4542ZM3.4192 20.2709L3.4192 19.7836L10.9443 19.7836L10.9443 20.2579C10.9443 20.5462 10.7108 20.7797 10.4221 20.7797L3.92808 20.7797C3.64318 20.7728 3.41666 20.5383 3.4192 20.2534L3.4192 20.2709ZM9.20441 22.0976L9.20441 38.8483L5.15904 38.8483L5.15904 22.0846L9.20441 22.0976ZM3.4192 40.6884C3.4192 40.3997 3.6527 40.1662 3.94109 40.1662L10.4221 40.1662C10.7108 40.1662 10.9443 40.3997 10.9443 40.6884L10.9443 41.1624L3.4192 41.1624L3.4192 40.6884ZM44.8542 45.4425L44.8542 46.7211L2.14921 46.7211L2.14921 45.4425C2.14921 45.07 2.45092 44.768 2.82338 44.768L44.18 44.768C44.5471 44.768 44.8472 45.0621 44.8542 45.4292C44.8542 45.4292 44.8542 45.4425 44.8542 45.4425ZM43.5842 40.6884L43.5842 41.1624L36.0591 41.1624L36.0591 40.6884C36.0591 40.3997 36.2926 40.1662 36.581 40.1662L43.0753 40.1662C43.3535 40.1731 43.5772 40.3968 43.5842 40.675L43.5842 40.6884ZM37.799 38.8613L37.799 22.0846L41.8484 22.0846L41.8484 38.8483L37.799 38.8613ZM43.5842 20.2709C43.5842 20.5592 43.3507 20.7928 43.0623 20.7928L36.5854 20.7928C36.2971 20.7928 36.0635 20.5592 36.0635 20.2709L36.0635 19.7836L43.5883 19.7836L43.5842 20.2709ZM23.5017 1.38031L42.9316 11.5932L4.0718 11.5932L23.5017 1.38031ZM2.14921 13.5592C2.14921 13.1992 2.4414 12.907 2.80149 12.907L44.2019 12.907C44.562 12.907 44.8542 13.1992 44.8542 13.5592L44.8542 15.5342C44.8542 15.8943 44.562 16.1865 44.2019 16.1865L2.80149 16.1865C2.4414 16.1865 2.14921 15.8943 2.14921 15.5342L2.14921 13.5592Z" transform="translate(0.7572007 7.930965E-05)" id="Shape" fill="#8C0014" stroke="none" />
  </g>
</svg>

<svg width="49" height="49" xmlns:xlink="http://www.w3.org/1999/xlink" xmlns="http://www.w3.org/2000/svg"><g id="museum-2" transform="translate(.5 .5)" fill="#8C0014" stroke="none"><path d="M18 36c9.941 0 18-8.059 18-18S27.941 0 18 0 0 8.059 0 18s8.059 18 18 18z" transform="translate(0 6)" id="Oval" fill-opacity=".149" fill-rule="evenodd"/><path d="M.883 13.26a1.943 1.943 0 00-.03.286v1.975a1.958 1.958 0 001.27 1.827v2.905a1.827 1.827 0 001.74 1.819v16.785a1.827 1.827 0 00-1.74 1.818v2.897a1.98 1.98 0 00-1.27 1.844v1.932c0 .36.292.652.652.652h44.002c.36 0 .652-.292.652-.652v-1.932a1.979 1.979 0 00-1.27-1.844v-2.914a1.827 1.827 0 00-1.74-1.818V22.072a1.827 1.827 0 001.74-1.819v-2.905a1.958 1.958 0 001.27-1.827v-1.962a1.9 1.9 0 00-.03-.287.65.65 0 10.526-1.187L23.806.075a.653.653 0 00-.609 0L.348 12.072a.653.653 0 00.535 1.187zm2.545 5.219v-1.005h7.525v.996l-7.525.009zm16.755 3.597v16.78a1.827 1.827 0 00-1.74 1.819v2.775h-6.194v-2.775a1.827 1.827 0 00-1.74-1.818V22.072a1.827 1.827 0 001.74-1.819v-2.78h6.185v2.776a1.827 1.827 0 001.74 1.823l.009.004zm-.435-3.597v-1.005h7.525v.996l-7.525.009zm16.755 3.597v16.78a1.827 1.827 0 00-1.74 1.819v2.775h-6.194v-2.775a1.827 1.827 0 00-1.74-1.818V22.072a1.827 1.827 0 001.74-1.819v-2.78h6.185v2.776a1.827 1.827 0 001.74 1.823l.009.004zm-.435-3.597v-1.005h7.525v.996l-7.525.009zm7.525 23.975v.996h-7.534v-.996h7.534zm-16.32 0v.996h-7.534v-.996h7.534zM20.827 20.78h-.566a.522.522 0 01-.522-.522v-.474h7.525v.474a.522.522 0 01-.522.522h-5.915zm4.702 1.305v16.763h-4.05V22.085h4.05zm-4.702 18.068h5.915c.289 0 .522.234.522.522v.474H19.74v-.474c0-.288.234-.522.522-.522h.566zm-9.883 2.301v.996H3.42v-.996h7.525zM3.42 20.271v-.487h7.525v.474a.522.522 0 01-.522.522H3.928a.522.522 0 01-.509-.527v.018zm5.785 1.827v16.75H5.16V22.085l4.045.013zM3.42 40.688c0-.288.234-.522.522-.522h6.481c.289 0 .522.234.522.522v.474H3.42v-.474zm41.435 4.755v1.278H2.15v-1.278c0-.373.302-.675.674-.675H44.18c.367 0 .667.294.674.661v.014zm-1.27-4.755v.474H36.06v-.474c0-.288.234-.522.522-.522h6.494c.278.007.502.23.51.509v.013zM37.8 38.861V22.085h4.05v16.763l-4.05.013zm5.785-18.59a.522.522 0 01-.522.522h-6.477a.522.522 0 01-.522-.522v-.487h7.525l-.004.487zM23.502 1.38l19.43 10.212H4.072L23.502 1.38zM2.149 13.558c0-.36.292-.652.652-.652h41.4c.361 0 .653.292.653.652v1.975c0 .36-.292.652-.652.652h-41.4a.652.652 0 01-.653-.652V13.56z" transform="translate(.757)" id="Shape"/></g></svg>
